storage/app/icons/phosphoricons/regular/monitor-arrow-up.svg

<svg xmlns="http://www.w3.org/2000/svg" fill="currentColor" viewBox="0 0 256 256"><path d="M208 40H48a24 24 0 0 0-24 24v112a24 24 0 0 0 24 24h160a24 24 0 0 0 24-24V64a24 24 0 0 0-24-24m8 136a8 8 0 0 1-8 8H48a8 8 0 0 1-8-8V64a8 8 0 0 1 8-8h160a8 8 0 0 1 8 8Zm-48 48a8 8 0 0 1-8 8H96a8 8 0 0 1 0-16h64a8 8 0 0 1 8 8m-10.34-117.66a8 8 0 0 1-11.32 11.32L136 107.31V152a8 8 0 0 1-16 0v-44.69l-10.34 10.35a8 8 0 0 1-11.32-11.32l24-24a8 8 0 0 1 11.32 0Z"/></svg>

<svg xmlns="http://www.w3.org/2000/svg" viewBox="0 0 256 256" fill="currentColor"><path d="M208,40H48A24,24,0,0,0,24,64V176a24,24,0,0,0,24,24H208a24,24,0,0,0,24-24V64A24,24,0,0,0,208,40Zm8,136a8,8,0,0,1-8,8H48a8,8,0,0,1-8-8V64a8,8,0,0,1,8-8H208a8,8,0,0,1,8,8Zm-48,48a8,8,0,0,1-8,8H96a8,8,0,0,1,0-16h64A8,8,0,0,1,168,224ZM157.66,106.34a8,8,0,0,1-11.32,11.32L136,107.31V152a8,8,0,0,1-16,0V107.31l-10.34,10.35a8,8,0,0,1-11.32-11.32l24-24a8,8,0,0,1,11.32,0Z"/></svg>
